X:1
%
T:First Regt. of Foot Guards New March
M:C
L:1/8
R:March
S:John Rook music manuscript collection (1840, p. 52)
N:Rook was a multi-instrumentalist from Waverton, near Wigton, Cumbria
Z:AK/Fiddler’s Companion
K:D
D2|D3E F>A d>f|Te2 A>A A2g2|{g}f2 e>d c2 d2|e2 e>e e2D2|
D3E F>A d>f|e2 A>A A2d2|(3cde e>c e>dc>B|B2 A>A A2:|
|:A2|G2 G>G G>GG>E|F2 d>d d2e2|f>ga>a A2 e>g|
f>ga>a A2 d>f|f>a d>f A2 Te2|d2 d>d d2:|]

